!!!COM: Music21
!!!OTL: Rumba dos Trintas
!!!OMV: pezas_rumbas_rumba-dos-trintas_rumba-dos-trintas-partitura.musicxml
**kern
*I"Bagpipes
*I'Bag
*clefG^2
*k[]
*M4/4
=1
!LO:TX:a:t=Prestissimo
*MM200
!LO:TX:a:t=[quarter]=200
2.r
8eeL
8ggJ
=||
4.ccc
4.ccc
8eeL
8ggJ
=
4.ccc
4.ccc
8ggL
8aaJ
=
8bb
4aa
8gg
4ff
8eeL
8ffJ
=
2.gg
8eeL
8ggJ
=
4.ccc
4.ccc
8eeL
8ggJ
=
4.ccc
4.ccc
8ggL
8aaJ
!!linebreak:original
=
8bb
4aa
8gg
4ff
8eeL
8ddJ
=
2.cc
8eeL
8ggJ
=||
4.ccc
4.ccc
8eeL
8ggJ
=
4.ccc
4.ccc
8ggL
8aaJ
=
8bb
4aa
8gg
4ff
8eeL
8ffJ
=
2.gg
8eeL
8ggJ
=
4.ccc
4.ccc
8eeL
8ggJ
!!linebreak:original
=
4.ccc
4.ccc
8ggL
8aaJ
=
8bb
4aa
8gg
4ff
8eeL
8ddJ
=||
8cc
4gg
8gg
4aa
4gg
=||
8aaL
[8ggJ
2.gg_
=
8gg]
4gg
8gg
4aa
4gg
=
8ffL
[8ddJ
2.dd_
!!linebreak:original
=
8dd]
4ff
8ff
8ggL
8ff
8ee
8ffJ
=
8bbL
[8aaJ
2aa]
8ggL
8ffJ
=
8bb
4aa
8gg
4ff
8eeL
8ffJ
=
8eeL
[8ccJ
2.cc_
=
8cc]
4gg
8gg
4aa
4gg
=||
8aaL
[8ggJ
2.gg_
=
8gg]
4gg
8gg
4aa
4gg
!!linebreak:original
=
8ffL
[8ddJ
2.dd_
!!linebreak:original
=
8dd]
4ff
8ff
8ggL
8ff
8ee
8ffJ
=
8bbL
[8aaJ
2aa]
8ggL
8ffJ
=
8bb
4aa
8gg
4ff
8eeL
8ddJ
=
4cc
2r
4ee
!!linebreak:original
=||
8ff
4ff
8ee
4ff
4aa
=
4gg
4dd
4dd
8ddL
8eeJ
=
4.ff
4.ee
4dd
=
2.ee
4ee
=
8ff
4ff
8ee
4ff
4aa
=
4gg
4dd
4dd
8ddL
8eeJ
=
8ff
4ee
8dd
4cc
4b
!!linebreak:original
=
8cc
8r
2r
4ee
!!linebreak:original
=||
8ff
4ff
8ee
4ff
4aa
=
4gg
4dd
4dd
8ddL
8eeJ
=
4.ff
4.ee
4dd
=
2.ee
4ee
=
8ff
4ff
8ee
4ff
4aa
=
4gg
4dd
4dd
8ddL
8eeJ
=
8ff
4ee
8dd
4cc
4b
!!linebreak:original
=
8cc
8r
2r
8eeL
8ggJ
=||
8cc
8r
2.r
==
*-
